X:1
T:Soldier's March
T:Soldier's March
T:Album for the Young Op. 68. No. 2
T:Robert Schumann
T:Public Domain (PianoXML typeset)
C:Robert Schumann
Z:Public Domain (PianoXML typeset)
%%score { 1 | 2 }
L:1/8
Q:1/4=120
M:2/4
K:G
V:1 treble nm="Piano" snm="Pno."
V:2 bass 
V:1
!f!"^Allegro" ([GB]>[Gc] .[Gd]) z | .[Ge] z .[Gd] z |!>(! .[Fc] z .[GB] z | .[FA] z .G!>)! z | %4
!f! ([GB]>[Gc] .[Gd]) z | .[Ge] z .[Gd] z | .[eg] z!>(! .[df] z | .[^ce] z .d!>)! z :: %8
!f! (D>E F2) | (E2 D2) |!>(! .[Fe] z .[Gd] z | .[Ac] z .[GB]!>)! z | ([DFA]>E F2) | (E2 D2) | %14
!>(! .[Ac] z .[GB] z | .[FA] z [GB]!>)! z |!f! ([GB]>[Gc] .[Gd]) z | .[Ge] z .[Gd] z | %18
!>(! .[Fc] z .[GB] z | .[FA] z .G!>)! z |!f! (C>D .E2) | (D2 C2 | .D) z!sfz! .[Adf] z | %23
!sfz! .[Bdg] z z2 |] %24
V:2
 (G,>A, .B,) z | .C z .B, z | .A, z .G, z | .[D,C] z .[G,B,] z | (G,>A, .B,) z | .C z .B, z | %6
 .^C z .D z | .[A,G] z .[DF] z :: (D,>E, F,2) | (E,2 D,2) | .C z .B, z | .[F,D] z .[G,D] z | %12
!f! (D,>E, F,2) | (E,2 D,2) | .[F,D] z .[G,D] z | .[D,D] z .[G,D] z | (G,>A, .B,) z | .C z .B, z | %18
 .A, z .G, z | .[D,C] z .[G,B,] z | (C,>D, .E,2) | (D,2 C,2 | .D,) z .D z | .G, z z2 |] %24

